X: 52
T:Skylark, The
M:C|
C:James Morrison
R:reel
K:D
agfg efdB|AF~F2 DFAd|BG~G2 EGBG|AF~F2 ABdf|
agfg efdB|AF~F2 DFAd|BG~G2 A2ag|1 ~f2eg fd~d2:|2 ~f2eg fddf||
|:a2fd Adfd|efed cA~A2|a2fa bged|Beed efge|
~f3d ~g3e|f2df edBA|~F2AF ~G2BG|1 ~A2ag fddf:|2 ~Aag fdd2||

